X: 1
T: Donalbane
M: 4/4
L: 1/8
R: strathspey
K: Amaj
|: (3fga |
(3eee e>d c>de>c | A<ec>e (3faf e>a |
e>e (3eef e>dc<e | (3BBB c>e f2 :|
|: (3efg |
a>ga>f e<cA>g | a>ga>e f2 (3efg |
1 a>ga>f e<dc<e | (3BBB c>e f2 :|
2 a2 g>e (3faf e>c | (3BBB c>e f2 ||
